suite-common/icons/assets/cryptoIcons/bnb.svg

<svg width="24" height="24" viewBox="0 0 24 24" fill="none" xmlns="http://www.w3.org/2000/svg">
	<circle cx="12" cy="12" r="12" fill="#F0B90B" />
	<path fill-rule="evenodd" clip-rule="evenodd" d="M15.9095 11.3987L15.9016 9.70015H15.9078L14.4651 8.8509L11.993 10.3085L9.53574 8.8509L8.09394 9.70015V11.3987L10.5661 12.8493V15.7575L12.0017 16.5988L13.4374 15.7575V12.8493L15.9095 11.3987ZM11.9938 4.5L8.09306 6.79985L9.5287 7.6491L11.9938 6.19148L14.466 7.6491L15.9016 6.79985L11.9938 4.5ZM7.06355 14.9012L7.05564 12L5.62087 11.1516V15.7584L9.52868 18.0503V16.3518L7.06355 14.9012ZM7.05564 10.7894V9.09882L8.49832 8.24956L7.05564 7.40031L5.62 8.24956V9.94016L7.05564 10.7894ZM11.9938 7.40031L10.5582 8.24956L11.9938 9.09882L13.4365 8.24956L11.9938 7.40031ZM8.09306 12.6013V14.2998L9.5287 15.1412V13.4506L8.09306 12.6013ZM11.9938 17.8094L10.5582 16.9601V18.6507L11.9938 19.5L13.4365 18.6507V16.9601L11.9938 17.8094ZM16.9311 7.40031L15.4955 8.24956L16.9311 9.09882V10.7894L18.3738 9.94016V8.24956L16.9311 7.40031ZM16.939 12L16.9311 14.9012L14.4669 16.3509V18.0494L18.3747 15.7575V11.1507L16.939 12ZM15.9016 14.2998L14.466 15.1412V13.4506L15.9016 12.6013V14.2998Z" fill="white" />
</svg>

<svg xmlns="http://www.w3.org/2000/svg" fill="none" viewBox="0 0 24 24">
  <circle cx="12" cy="12" r="12" fill="#F0B90B"/>
  <path fill="#fff" fill-rule="evenodd" d="M15.91 11.399 15.902 9.7h.006l-1.443-.85-2.472 1.459L9.536 8.85l-1.442.85v1.698l2.472 1.45v2.909l1.436.84 1.435-.84v-2.909zM11.994 4.5l-3.9 2.3 1.435.85 2.465-1.459 2.472 1.458 1.436-.85zm-4.93 10.401L7.056 12l-1.435-.848v4.606l3.908 2.292v-1.698zm-.008-4.112V9.1l1.442-.85-1.442-.85-1.436.85v1.69zM11.994 7.4l-1.436.85 1.436.849 1.443-.85zm-3.9 5.201V14.3l1.435.841v-1.69zm3.9 5.208-1.436-.849v1.69l1.436.85 1.443-.85v-1.69zM16.93 7.4l-1.436.85 1.436.849v1.69l1.443-.849V8.25zm.008 4.6-.008 2.901-2.464 1.45v1.698l3.908-2.291V11.15zm-1.037 2.3-1.436.841v-1.69l1.436-.85z" clip-rule="evenodd"/>
</svg>
